X: 8769
T: Cuckoo Fleadh, The
R: jig
M: 6/8
K: Edorian
|:D|B,EF GFE|GFG AGA|Bdd Add|dAG FED|
B,EF GFE|GFG AGA|Bdd AGF|GEE E2:|
A|Bed BAB|dcd FGA|Bed efa|bee e2d|
Bed BAB|dcd FGA|BGG AdF|GEE E2A|
Bed BAB|dcd FGA|Bed efa|bee e2f|
gfe dgf|edA BGA|Bdd AGF|GEE E2||

